X:16
T:Eagle's Whistle, The
R:march
H:See also air#2
Z:id:hn-march-16
M:2/4
L:1/16
Q:1/4=80
K:G
GA | B2B>B dBAG | B2B>B dBAG | B2A2 A2Bd | B2A2 A2GA |
B2B>B dBAG | B2B>B dBAd | A2G2 G2Bd | A2G2 G2Bd ||
g2d>d edBd | g2d>d edBG | B2A2 A2Bd | B2A2 A2Bd |
g2d>d edBd | g2d>d edBd | A2G2 G2Bd | A2G2 G2ed ||

